X: 7508
T: Coast River
R: reel
M: 4/4
K: Edorian
FGED E2AG|FGAd ~B3e|dfeB d2cA|(3Bcd cA dcAG:|
FAdA B2BB|efd2- decA|B2e2 d4|cA (3Bcd cABG|
FAdA B2BB|efd2- def2-|faf2- (3gfe d2|cedB cABG||
|:ABde c2cB|ceB2 BABd|G2GA (3Bcd cA|BGAF GFDG|
ABde c2cB|ceB2 BABd|e2ed cedf|1 ecdB cABG:|2 ecdB cABd||
|:f2fe def2|fefa e2fe|deBd cBAB|ceec e2fe|
def2 fede|fefa e2fe|deBd cedf|1 ecdB cABd:|2 ecdB cABG||

